public/build/img/icIdea.svg

<svg xmlns="http://www.w3.org/2000/svg" xmlns:xlink="http://www.w3.org/1999/xlink" width="500" zoomAndPan="magnify" viewBox="0 0 375 374.999991" height="500" preserveAspectRatio="xMidYMid meet" version="1.0"><defs><clipPath id="6dca2a128d"><path d="M 185 112.5 L 190 112.5 L 190 127 L 185 127 Z M 185 112.5 " clip-rule="nonzero"/></clipPath><clipPath id="1a71065ca3"><path d="M 124.21875 173 L 139 173 L 139 179 L 124.21875 179 Z M 124.21875 173 " clip-rule="nonzero"/></clipPath><clipPath id="c8ab1a0e55"><path d="M 236 173 L 250.96875 173 L 250.96875 179 L 236 179 Z M 236 173 " clip-rule="nonzero"/></clipPath><clipPath id="fb1ecc4f90"><path d="M 180 257 L 195 257 L 195 262.5 L 180 262.5 Z M 180 257 " clip-rule="nonzero"/></clipPath></defs><path fill="#000000" d="M 187.59375 131.25 C 162.949219 131.25 142.996094 150.9375 142.996094 175.195312 C 142.996094 185.742188 146.871094 195.9375 153.910156 203.90625 C 155.320312 205.546875 156.960938 207.070312 158.371094 208.710938 C 160.25 211.054688 163.886719 216.09375 166.820312 222.890625 C 168.582031 226.875 169.753906 231.09375 170.339844 235.195312 C 170.929688 238.710938 173.863281 241.289062 177.382812 241.289062 L 197.804688 241.289062 C 201.324219 241.289062 204.375 238.710938 204.847656 235.195312 C 205.433594 231.210938 206.605469 227.109375 208.367188 223.125 C 210.832031 217.382812 213.296875 213.28125 215.054688 210.9375 C 216.464844 208.945312 218.226562 207.304688 219.867188 205.546875 C 227.847656 197.34375 232.308594 186.5625 232.308594 175.195312 C 232.191406 150.9375 212.238281 131.25 187.59375 131.25 Z M 216.464844 202.382812 C 214.585938 204.257812 212.710938 206.132812 211.183594 208.359375 C 209.421875 210.9375 206.722656 215.390625 204.140625 221.484375 C 202.265625 225.820312 200.972656 230.273438 200.386719 234.726562 C 200.152344 235.898438 199.09375 236.835938 197.921875 236.835938 L 194.636719 236.835938 L 194.636719 229.804688 C 194.636719 228.515625 193.578125 227.460938 192.289062 227.460938 C 190.996094 227.460938 189.941406 228.515625 189.941406 229.804688 L 189.941406 236.835938 L 185.246094 236.835938 L 185.246094 191.835938 C 185.246094 190.3125 185.246094 189.609375 185.714844 189.140625 C 186.890625 187.96875 188.53125 187.265625 190.644531 186.914062 C 190.644531 186.914062 190.761719 186.914062 190.761719 186.914062 L 191.820312 186.679688 C 193.929688 188.085938 196.394531 188.085938 198.15625 188.085938 C 200.269531 188.085938 202.382812 187.382812 204.140625 186.210938 C 206.488281 186.796875 208.71875 186.796875 211.066406 186.09375 C 216.699219 184.570312 221.042969 179.648438 221.746094 173.90625 C 222.449219 168.046875 219.75 162.304688 214.820312 159.375 C 213.882812 154.453125 209.65625 150.820312 204.726562 150.820312 C 204.375 150.820312 204.023438 150.820312 203.789062 150.820312 C 202.027344 147.890625 198.976562 145.898438 195.574219 145.664062 C 195.457031 145.664062 195.222656 145.664062 195.105469 145.664062 C 195.105469 145.664062 194.988281 145.664062 194.988281 145.664062 C 194.988281 145.664062 194.871094 145.664062 194.871094 145.664062 C 194.636719 145.664062 194.285156 145.664062 194.046875 145.664062 C 192.523438 145.78125 191.113281 146.25 189.824219 146.953125 C 188.0625 145.664062 185.949219 144.960938 183.722656 144.960938 C 180.667969 144.960938 177.96875 146.25 175.976562 148.476562 C 175.269531 148.359375 174.566406 148.242188 173.863281 148.242188 C 169.402344 148.242188 165.53125 151.171875 164.121094 155.273438 C 159.777344 156.5625 156.726562 160.664062 156.726562 165.351562 C 156.726562 166.289062 156.84375 167.34375 157.078125 168.28125 C 155.085938 170.273438 153.792969 172.96875 153.792969 175.898438 C 153.792969 178.59375 154.851562 181.171875 156.609375 183.164062 C 156.609375 183.28125 156.609375 183.28125 156.609375 183.398438 C 159.191406 193.125 166.703125 194.414062 167.054688 194.414062 C 168.347656 194.648438 169.519531 193.710938 169.753906 192.421875 C 169.988281 191.132812 169.050781 189.960938 167.878906 189.726562 C 167.640625 189.726562 163.183594 188.789062 161.304688 182.460938 C 161.304688 182.460938 161.304688 182.34375 161.304688 182.34375 C 161.304688 181.640625 161.070312 180.820312 160.484375 180.351562 C 159.191406 179.296875 158.488281 177.65625 158.488281 175.898438 C 158.488281 174.140625 159.191406 172.5 160.484375 171.445312 C 160.484375 171.445312 160.601562 171.328125 160.601562 171.328125 C 161.539062 170.507812 162.832031 170.039062 164.003906 170.15625 C 165.296875 170.273438 166.46875 170.859375 167.289062 171.796875 C 167.757812 172.382812 168.464844 172.617188 169.050781 172.617188 C 169.636719 172.617188 170.105469 172.382812 170.578125 172.03125 C 171.515625 171.210938 171.632812 169.6875 170.8125 168.75 C 169.167969 166.757812 166.820312 165.585938 164.238281 165.46875 C 163.183594 165.351562 162.125 165.46875 161.070312 165.820312 C 161.070312 165.703125 161.070312 165.585938 161.070312 165.46875 C 161.070312 162.539062 163.183594 160.078125 166 159.726562 C 167.054688 159.609375 167.878906 158.789062 167.996094 157.851562 C 168.464844 155.273438 170.578125 153.28125 173.039062 153.164062 C 173.039062 153.164062 173.160156 153.164062 173.160156 153.164062 C 175.152344 153.164062 177.03125 154.453125 177.734375 156.445312 C 177.96875 156.914062 177.96875 157.5 177.96875 158.085938 C 177.96875 159.375 179.027344 160.429688 180.316406 160.429688 C 181.609375 160.429688 182.664062 159.375 182.664062 158.085938 C 182.664062 157.03125 182.429688 155.976562 182.078125 154.921875 C 181.609375 153.515625 180.785156 152.226562 179.730469 151.171875 C 180.667969 150.351562 181.960938 149.882812 183.25 149.882812 C 184.308594 149.882812 185.363281 150.234375 186.304688 150.820312 C 185.597656 152.226562 185.128906 153.75 185.128906 155.390625 C 185.128906 156.679688 186.183594 157.734375 187.476562 157.734375 C 188.765625 157.734375 189.824219 156.679688 189.824219 155.390625 C 189.824219 152.695312 191.9375 150.46875 194.519531 150.46875 C 196.867188 150.46875 198.976562 151.992188 199.800781 154.335938 C 200.269531 155.507812 201.558594 156.210938 202.734375 155.859375 C 203.320312 155.742188 203.789062 155.625 204.375 155.625 C 206.957031 155.625 209.1875 157.5 209.773438 159.960938 C 209.773438 159.960938 209.773438 160.078125 209.773438 160.078125 C 209.304688 162.070312 207.664062 163.710938 205.667969 163.945312 C 204.375 164.0625 203.4375 165.234375 203.671875 166.523438 C 203.789062 167.695312 204.847656 168.515625 206.019531 168.515625 C 206.136719 168.515625 206.253906 168.515625 206.371094 168.515625 C 209.1875 168.164062 211.652344 166.523438 213.179688 164.0625 C 215.878906 166.171875 217.285156 169.6875 216.816406 173.203125 C 216.347656 177.1875 213.414062 180.46875 209.65625 181.523438 C 207.78125 181.992188 205.902344 181.992188 204.140625 181.289062 C 203.320312 181.054688 202.382812 181.171875 201.792969 181.757812 C 200.738281 182.695312 199.445312 183.28125 198.039062 183.28125 C 197.921875 183.28125 197.921875 183.28125 197.804688 183.28125 C 199.800781 180.9375 200.621094 177.773438 199.800781 174.609375 C 199.445312 173.320312 198.15625 172.617188 196.984375 172.96875 C 195.691406 173.320312 194.988281 174.609375 195.339844 175.78125 C 196.042969 178.476562 194.519531 181.171875 191.9375 181.875 C 191.9375 181.875 191.9375 181.875 191.820312 181.875 L 189.941406 182.34375 C 185.949219 182.8125 183.601562 184.570312 182.3125 185.976562 C 180.550781 187.851562 180.550781 190.078125 180.550781 191.835938 L 180.550781 236.71875 L 177.382812 236.71875 C 176.210938 236.71875 175.152344 235.78125 174.917969 234.609375 C 174.214844 230.15625 172.921875 225.585938 171.046875 221.132812 C 168.113281 214.21875 164.472656 209.0625 162.007812 205.898438 C 160.601562 204.140625 158.957031 202.617188 157.433594 200.859375 C 151.09375 193.710938 147.691406 184.570312 147.691406 175.195312 C 147.691406 153.515625 165.648438 135.9375 187.59375 135.9375 C 209.539062 135.9375 227.496094 153.515625 227.496094 175.195312 C 227.496094 185.390625 223.507812 195 216.464844 202.382812 Z M 216.464844 202.382812 " fill-opacity="1" fill-rule="nonzero"/><g clip-path="url(#6dca2a128d)"><path fill="#000000" d="M 187.59375 126.5625 C 188.882812 126.5625 189.941406 125.507812 189.941406 124.21875 L 189.941406 114.84375 C 189.941406 113.554688 188.882812 112.5 187.59375 112.5 C 186.304688 112.5 185.246094 113.554688 185.246094 114.84375 L 185.246094 124.21875 C 185.246094 125.507812 186.304688 126.5625 187.59375 126.5625 Z M 187.59375 126.5625 " fill-opacity="1" fill-rule="nonzero"/></g><path fill="#000000" d="M 165.648438 129.023438 C 166 129.960938 166.9375 130.429688 167.757812 130.429688 C 168.113281 130.429688 168.347656 130.429688 168.699219 130.195312 C 169.871094 129.726562 170.460938 128.320312 169.988281 127.148438 L 166.351562 118.476562 C 165.882812 117.304688 164.472656 116.71875 163.300781 117.1875 C 162.125 117.65625 161.539062 119.0625 162.007812 120.234375 Z M 165.648438 129.023438 " fill-opacity="1" fill-rule="nonzero"/><path fill="#000000" d="M 148.746094 140.390625 C 149.335938 140.976562 150.15625 141.5625 150.976562 141.679688 C 151.210938 141.679688 151.5625 141.679688 151.796875 141.5625 C 152.855469 141.09375 153.558594 139.921875 153.207031 138.867188 C 152.972656 138.164062 152.503906 137.578125 151.914062 137.109375 C 150.15625 135.351562 148.394531 133.59375 146.515625 131.835938 C 146.046875 131.367188 145.695312 131.015625 145.109375 130.78125 C 144.289062 130.429688 143.230469 130.664062 142.644531 131.25 C 142.058594 131.835938 141.824219 132.890625 142.175781 133.710938 C 142.410156 134.296875 142.878906 134.765625 143.230469 135.117188 C 145.226562 136.757812 146.988281 138.515625 148.746094 140.390625 Z M 148.746094 140.390625 " fill-opacity="1" fill-rule="nonzero"/><path fill="#000000" d="M 140.765625 153.867188 L 132.082031 150.234375 C 130.910156 149.765625 129.5 150.351562 129.03125 151.523438 C 128.5625 152.695312 129.148438 154.101562 130.320312 154.570312 C 130.320312 154.570312 139.007812 158.203125 139.007812 158.203125 C 140.179688 158.671875 141.589844 158.085938 142.058594 156.914062 C 142.527344 155.742188 141.941406 154.335938 140.765625 153.867188 Z M 140.765625 153.867188 " fill-opacity="1" fill-rule="nonzero"/><g clip-path="url(#1a71065ca3)"><path fill="#000000" d="M 135.953125 173.4375 L 126.566406 173.4375 C 125.273438 173.4375 124.21875 174.492188 124.21875 175.78125 C 124.21875 177.070312 125.273438 178.125 126.566406 178.125 L 135.953125 178.125 C 137.246094 178.125 138.300781 177.070312 138.300781 175.78125 C 138.300781 174.492188 137.246094 173.4375 135.953125 173.4375 Z M 135.953125 173.4375 " fill-opacity="1" fill-rule="nonzero"/></g><g clip-path="url(#c8ab1a0e55)"><path fill="#000000" d="M 248.621094 173.4375 L 239.234375 173.4375 C 237.941406 173.4375 236.886719 174.492188 236.886719 175.78125 C 236.886719 177.070312 237.941406 178.125 239.234375 178.125 L 248.621094 178.125 C 249.914062 178.125 250.96875 177.070312 250.96875 175.78125 C 250.96875 174.492188 249.914062 173.4375 248.621094 173.4375 Z M 248.621094 173.4375 " fill-opacity="1" fill-rule="nonzero"/></g><path fill="#000000" d="M 246.15625 151.523438 C 245.6875 150.351562 244.277344 149.765625 243.105469 150.234375 L 234.421875 153.867188 C 233.246094 154.335938 232.660156 155.742188 233.128906 156.914062 C 233.480469 157.851562 234.421875 158.320312 235.242188 158.320312 C 235.59375 158.320312 235.828125 158.320312 236.179688 158.085938 L 244.867188 154.453125 C 246.039062 154.101562 246.625 152.8125 246.15625 151.523438 Z M 246.15625 151.523438 " fill-opacity="1" fill-rule="nonzero"/><path fill="#000000" d="M 232.425781 131.015625 C 231.488281 130.078125 230.078125 130.078125 229.140625 131.015625 L 222.449219 137.695312 C 221.511719 138.632812 221.511719 140.039062 222.449219 140.976562 C 222.917969 141.445312 223.507812 141.679688 224.09375 141.679688 C 224.679688 141.679688 225.265625 141.445312 225.734375 140.976562 L 232.425781 134.296875 C 233.363281 133.476562 233.363281 131.953125 232.425781 131.015625 Z M 232.425781 131.015625 " fill-opacity="1" fill-rule="nonzero"/><path fill="#000000" d="M 206.488281 130.3125 C 206.839844 130.429688 207.074219 130.546875 207.429688 130.546875 C 208.367188 130.546875 209.1875 129.960938 209.539062 129.140625 L 213.179688 120.46875 C 213.648438 119.296875 213.0625 117.890625 211.886719 117.421875 C 210.714844 116.953125 209.304688 117.539062 208.835938 118.710938 L 205.199219 127.265625 C 204.726562 128.4375 205.316406 129.84375 206.488281 130.3125 Z M 206.488281 130.3125 " fill-opacity="1" fill-rule="nonzero"/><path fill="#000000" d="M 199.328125 243.75 L 175.859375 243.75 C 174.566406 243.75 173.511719 244.804688 173.511719 246.09375 C 173.511719 247.382812 174.566406 248.4375 175.859375 248.4375 L 199.328125 248.4375 C 200.621094 248.4375 201.675781 247.382812 201.675781 246.09375 C 201.675781 244.804688 200.621094 243.75 199.328125 243.75 Z M 199.328125 243.75 " fill-opacity="1" fill-rule="nonzero"/><path fill="#000000" d="M 196.984375 250.78125 L 178.203125 250.78125 C 176.914062 250.78125 175.859375 251.835938 175.859375 253.125 C 175.859375 254.414062 176.914062 255.46875 178.203125 255.46875 L 196.984375 255.46875 C 198.273438 255.46875 199.328125 254.414062 199.328125 253.125 C 199.328125 251.835938 198.273438 250.78125 196.984375 250.78125 Z M 196.984375 250.78125 " fill-opacity="1" fill-rule="nonzero"/><g clip-path="url(#fb1ecc4f90)"><path fill="#000000" d="M 192.289062 257.8125 L 182.898438 257.8125 C 181.609375 257.8125 180.550781 258.867188 180.550781 260.15625 C 180.550781 261.445312 181.609375 262.5 182.898438 262.5 L 192.289062 262.5 C 193.578125 262.5 194.636719 261.445312 194.636719 260.15625 C 194.636719 258.867188 193.578125 257.8125 192.289062 257.8125 Z M 192.289062 257.8125 " fill-opacity="1" fill-rule="nonzero"/></g></svg>

<svg xmlns="http://www.w3.org/2000/svg" width="500" viewBox="0 0 375 375" height="500" version="1.0"><defs><clipPath id="a"><path d="M185 112.5h5V127h-5zm0 0"/></clipPath><clipPath id="b"><path d="M124.219 173H139v6h-14.781zm0 0"/></clipPath><clipPath id="c"><path d="M236 173h14.969v6H236zm0 0"/></clipPath><clipPath id="d"><path d="M180 257h15v5.5h-15zm0 0"/></clipPath></defs><path d="M187.594 131.25c-24.645 0-44.598 19.688-44.598 43.945 0 10.547 3.875 20.743 10.914 28.711 1.41 1.64 3.05 3.164 4.461 4.805 1.879 2.344 5.516 7.383 8.45 14.18a47.17 47.17 0 013.519 12.304c.59 3.516 3.523 6.094 7.043 6.094h20.422c3.52 0 6.57-2.578 7.043-6.094.586-3.984 1.757-8.086 3.52-12.07 2.464-5.742 4.929-9.844 6.687-12.188 1.41-1.992 3.172-3.632 4.812-5.39 7.98-8.203 12.442-18.984 12.442-30.352-.118-24.257-20.07-43.945-44.715-43.945zm28.87 71.133c-1.878 1.875-3.753 3.75-5.28 5.976-1.762 2.578-4.461 7.032-7.043 13.125-1.875 4.336-3.168 8.79-3.754 13.243-.235 1.171-1.293 2.109-2.465 2.109h-3.285v-7.031a2.354 2.354 0 00-2.348-2.344 2.351 2.351 0 00-2.348 2.344v7.03h-4.695v-45c0-1.523 0-2.226.469-2.694 1.176-1.172 2.816-1.875 4.93-2.227h.117l1.058-.234c2.11 1.406 4.575 1.406 6.336 1.406 2.114 0 4.227-.703 5.985-1.875 2.347.586 4.578.586 6.925-.117 5.633-1.524 9.977-6.446 10.68-12.188.703-5.86-1.996-11.601-6.926-14.531-.937-4.922-5.164-8.555-10.093-8.555h-.938c-1.762-2.93-4.812-4.922-8.215-5.156h-1.527c-1.524.117-2.934.586-4.223 1.29a10.283 10.283 0 00-6.101-1.993c-3.055 0-5.754 1.289-7.746 3.516-.707-.118-1.41-.235-2.114-.235-4.46 0-8.332 2.93-9.742 7.031-4.344 1.29-7.394 5.391-7.394 10.079 0 .937.117 1.992.351 2.93-1.992 1.991-3.285 4.687-3.285 7.616 0 2.696 1.059 5.274 2.816 7.266v.234c2.582 9.727 10.094 11.016 10.446 11.016 1.293.234 2.465-.703 2.699-1.992.234-1.29-.703-2.461-1.875-2.695-.238 0-4.695-.938-6.574-7.266v-.117c0-.703-.235-1.524-.82-1.992-1.294-1.055-1.997-2.696-1.997-4.454 0-1.757.703-3.398 1.996-4.453l.118-.117c.937-.82 2.23-1.289 3.402-1.172 1.293.117 2.465.703 3.285 1.64.469.587 1.176.821 1.762.821.586 0 1.054-.234 1.527-.586.938-.82 1.055-2.344.234-3.281a8.977 8.977 0 00-6.574-3.281 7.355 7.355 0 00-3.168.351v-.351c0-2.93 2.114-5.39 4.93-5.742 1.055-.118 1.879-.938 1.996-1.875.469-2.579 2.582-4.57 5.043-4.688h.121c1.992 0 3.871 1.29 4.574 3.281.235.47.235 1.055.235 1.64a2.354 2.354 0 002.347 2.345 2.351 2.351 0 002.348-2.344c0-1.055-.234-2.11-.586-3.164-.469-1.406-1.293-2.695-2.348-3.75.938-.82 2.23-1.29 3.52-1.29 1.059 0 2.113.352 3.055.938-.707 1.407-1.176 2.93-1.176 4.57a2.351 2.351 0 002.348 2.344 2.354 2.354 0 002.347-2.343c0-2.696 2.113-4.922 4.696-4.922 2.347 0 4.457 1.523 5.28 3.867.47 1.172 1.759 1.875 2.934 1.523.586-.117 1.055-.234 1.641-.234 2.582 0 4.813 1.875 5.398 4.336v.117c-.468 1.992-2.109 3.633-4.105 3.867-1.293.118-2.23 1.29-1.996 2.578.117 1.172 1.176 1.993 2.348 1.993h.351c2.816-.352 5.281-1.993 6.809-4.453 2.699 2.109 4.105 5.625 3.636 9.14-.468 3.984-3.402 7.266-7.16 8.32-1.875.47-3.754.47-5.515-.234-.82-.234-1.758-.117-2.348.469-1.055.937-2.348 1.523-3.754 1.523h-.234c1.996-2.344 2.816-5.508 1.996-8.672-.356-1.289-1.645-1.992-2.817-1.64-1.293.351-1.996 1.64-1.644 2.812.703 2.696-.82 5.39-3.403 6.094h-.117l-1.879.469c-3.992.469-6.34 2.226-7.629 3.633-1.761 1.875-1.761 4.101-1.761 5.859v44.883h-3.168c-1.172 0-2.23-.938-2.465-2.11-.703-4.453-1.996-9.023-3.871-13.476-2.934-6.914-6.574-12.07-9.04-15.235-1.405-1.757-3.05-3.28-4.573-5.039a38.652 38.652 0 01-9.743-25.664c0-21.68 17.957-39.257 39.903-39.257 21.945 0 39.902 17.578 39.902 39.257 0 10.196-3.988 19.805-11.031 27.188zm0 0"/><g clip-path="url(#a)"><path d="M187.594 126.563a2.354 2.354 0 002.347-2.344v-9.375a2.354 2.354 0 00-2.347-2.344 2.354 2.354 0 00-2.348 2.344v9.375a2.354 2.354 0 002.348 2.344zm0 0"/></g><path d="M165.648 129.023c.352.938 1.29 1.407 2.11 1.407.355 0 .59 0 .941-.235 1.172-.468 1.762-1.875 1.29-3.047l-3.637-8.671c-.47-1.172-1.88-1.758-3.051-1.29-1.176.47-1.762 1.876-1.293 3.047zm-16.902 11.367c.59.587 1.41 1.173 2.23 1.29.235 0 .587 0 .82-.118 1.06-.468 1.763-1.64 1.411-2.695-.234-.703-.703-1.289-1.293-1.758-1.758-1.757-3.52-3.515-5.398-5.273-.47-.469-.82-.82-1.407-1.055-.82-.351-1.879-.117-2.464.469-.586.586-.82 1.64-.47 2.46.235.587.704 1.056 1.055 1.407 1.997 1.64 3.758 3.399 5.516 5.274zm-7.98 13.477l-8.684-3.633c-1.172-.468-2.582.118-3.05 1.29-.47 1.171.116 2.578 1.288 3.046l8.688 3.633c1.172.469 2.582-.117 3.05-1.289.47-1.172-.117-2.578-1.292-3.047zm0 0"/><g clip-path="url(#b)"><path d="M135.953 173.438h-9.387a2.351 2.351 0 00-2.347 2.343 2.351 2.351 0 002.347 2.344h9.387a2.351 2.351 0 002.348-2.344 2.351 2.351 0 00-2.348-2.344zm0 0"/></g><g clip-path="url(#c)"><path d="M248.621 173.438h-9.387a2.351 2.351 0 00-2.347 2.343 2.351 2.351 0 002.347 2.344h9.387a2.351 2.351 0 002.348-2.344 2.351 2.351 0 00-2.348-2.344zm0 0"/></g><path d="M246.156 151.523c-.469-1.171-1.879-1.757-3.05-1.289l-8.684 3.633c-1.176.469-1.762 1.875-1.293 3.047.351.938 1.293 1.406 2.113 1.406.352 0 .586 0 .938-.234l8.687-3.633c1.172-.351 1.758-1.64 1.29-2.93zm-13.73-20.507c-.938-.938-2.348-.938-3.285 0l-6.692 6.68c-.937.937-.937 2.343 0 3.28a2.322 2.322 0 001.645.704c.586 0 1.172-.235 1.64-.703l6.692-6.68c.937-.82.937-2.344 0-3.281zm-25.938-.703c.352.117.586.234.942.234.937 0 1.757-.586 2.11-1.406l3.64-8.672c.468-1.172-.118-2.578-1.293-3.047-1.172-.469-2.582.117-3.051 1.289l-3.637 8.555c-.472 1.171.117 2.578 1.29 3.046zm-7.16 113.437H175.86a2.351 2.351 0 00-2.347 2.344 2.351 2.351 0 002.347 2.344h23.47a2.351 2.351 0 002.347-2.344 2.351 2.351 0 00-2.348-2.344zm-2.344 7.031h-18.78a2.35 2.35 0 00-2.345 2.344 2.35 2.35 0 002.344 2.344h18.781a2.35 2.35 0 002.344-2.344 2.35 2.35 0 00-2.344-2.344zm0 0"/><g clip-path="url(#d)"><path d="M192.29 257.813h-9.392a2.354 2.354 0 00-2.347 2.343 2.354 2.354 0 002.347 2.344h9.391a2.354 2.354 0 002.348-2.344 2.354 2.354 0 00-2.348-2.344zm0 0"/></g></svg>
